;FLAVOR:Marlin
;TIME:7112
;Filament used: 7.18409m
;Layer height: 0.2
;Generated with Cura_SteamEngine 4.0.0
M140 S60
M105
M190 S60
M104 S200
M105
M109 S200
M82 ;absolute extrusion mode
; Ender 3 Custom Start G-code
G28 ; Home all axes
G92 E0 ; Reset Extruder
G1 Z2.0 F3000 ; Move Z Axis up little to prevent scratching of Heat Bed
G1 X0.1 Y20 Z0.3 F5000.0 ; Move to start position
G1 X0.1 Y200.0 Z0.3 F1500.0 E15 ; Draw the first line
G1 X0.4 Y200.0 Z0.3 F5000.0 ; Move to side a little
G1 X0.4 Y20 Z0.3 F1500.0 E30 ; Draw the second line
G92 E0 ; Reset Extruder
G1 Z2.0 F3000 ; Move Z Axis up little to prevent scratching of Heat Bed
; End of custom start GCode
G92 E0
G1 F2400 E-10
;LAYER_COUNT:111
;LAYER:0
M107
M204 S5000
M205 X30 Y30
G0 F3600 X74.503 Y88.017 Z0.2
M204 S500
M205 X20 Y20
;TYPE:SKIRT
G1 F2400 E0
G1 F1800 X75.085 Y87.602 E0.02377
G1 X75.71 Y87.253 E0.04758
G1 X76.37 Y86.977 E0.07138
G1 X77.056 Y86.776 E0.09515
G1 X77.761 Y86.653 E0.11896
G1 X78.509 Y86.609 E0.14388
G1 X156.491 Y86.61 E2.73757
G1 X157.205 Y86.65 E2.76135
G1 X157.91 Y86.769 E2.78513
G1 X158.598 Y86.967 E2.80895
G1 X159.259 Y87.24 E2.83273
G1 X159.886 Y87.585 E2.85653
G1 X160.47 Y87.997 E2.88031
G1 X161.004 Y88.472 E2.90408
G1 X161.483 Y89.004 E2.92789
G1 X161.898 Y89.586 E2.95166
G1 X162.247 Y90.211 E2.97547
G1 X162.523 Y90.871 E2.99926
G1 X162.724 Y91.557 E3.02304
G1 X162.847 Y92.262 E3.04684
G1 X162.891 Y93.01 E3.07176
G1 X162.891 Y141.991 E4.70088
G1 X162.851 Y142.705 E4.72466
G1 X162.732 Y143.41 E4.74844
G1 X162.534 Y144.098 E4.77225
G1 X162.261 Y144.759 E4.79604
G1 X161.917 Y145.386 E4.81983
G1 X161.504 Y145.97 E4.84362
G1 X161.029 Y146.504 E4.86739
G1 X160.497 Y146.983 E4.8912
G1 X159.915 Y147.398 E4.91497
G1 X159.29 Y147.747 E4.93878
G1 X158.63 Y148.023 E4.96258
G1 X157.944 Y148.224 E4.98635
G1 X157.239 Y148.347 E5.01015
G1 X156.491 Y148.391 E5.03508
G1 X78.509 Y148.391 E7.62877
G1 X77.795 Y148.351 E7.65255
G1 X77.09 Y148.232 E7.67633
G1 X76.402 Y148.034 E7.70014
G1 X75.741 Y147.761 E7.72393
G1 X75.114 Y147.417 E7.74772
G1 X74.53 Y147.004 E7.77151
G1 X73.996 Y146.529 E7.79528
G1 X73.517 Y145.997 E7.81909
G1 X73.102 Y145.415 E7.84286
G1 X72.753 Y144.79 E7.86667
G1 X72.477 Y144.13 E7.89047
G1 X72.276 Y143.444 E7.91424
G1 X72.153 Y142.739 E7.93804
G1 X72.109 Y141.991 E7.96297
G1 X72.109 Y93.009 E9.59211
G1 X72.149 Y92.295 E9.6159
G1 X72.268 Y91.59 E9.63968
G1 X72.466 Y90.902 E9.66349
G1 X72.739 Y90.241 E9.68728
G1 X73.083 Y89.614 E9.71106
G1 X73.496 Y89.03 E9.73485
G1 X73.971 Y88.496 E9.75862
G1 X74.503 Y88.017 E9.78243
M204 S5000
M205 X30 Y30
G0 F3600 X74.893 Y88.221
M204 S500
M205 X20 Y20
G1 F1800 X75.468 Y87.836 E9.80545
G1 X76.085 Y87.521 E9.82849
G1 X76.733 Y87.278 E9.85151
G1 X77.406 Y87.111 E9.87457
G1 X78.092 Y87.023 E9.89757
G1 X78.509 Y87.009 E9.91145
G1 X156.491 Y87.01 E12.50514
G1 X157.182 Y87.05 E12.52817
G1 X157.865 Y87.169 E12.55122
G1 X158.528 Y87.367 E12.57424
G1 X159.165 Y87.639 E12.59728
G1 X159.766 Y87.983 E12.62031
G1 X160.324 Y88.394 E12.64336
G1 X160.83 Y88.866 E12.66637
G1 X161.279 Y89.394 E12.68943
G1 X161.664 Y89.97 E12.71247
G1 X161.979 Y90.586 E12.73548
G1 X162.222 Y91.234 E12.7585
G1 X162.389 Y91.907 E12.78156
G1 X162.477 Y92.594 E12.8046
G1 X162.491 Y93.01 E12.81844
G1 X162.491 Y141.991 E14.44756
G1 X162.451 Y142.682 E14.47058
G1 X162.332 Y143.365 E14.49364
G1 X162.134 Y144.028 E14.51665
G1 X161.862 Y144.665 E14.53969
G1 X161.518 Y145.266 E14.56272
G1 X161.107 Y145.824 E14.58577
G1 X160.635 Y146.33 E14.60878
G1 X160.107 Y146.779 E14.63184
G1 X159.532 Y147.164 E14.65485
G1 X158.915 Y147.479 E14.67789
G1 X158.267 Y147.722 E14.70091
G1 X157.594 Y147.889 E14.72398
G1 X156.908 Y147.977 E14.74698
G1 X156.491 Y147.991 E14.76086
G1 X78.509 Y147.991 E17.35455
G1 X77.818 Y147.951 E17.37757
G1 X77.135 Y147.832 E17.40063
G1 X76.472 Y147.634 E17.42364
G1 X75.835 Y147.362 E17.44668
G1 X75.234 Y147.018 E17.46971
G1 X74.676 Y146.607 E17.49276
G1 X74.17 Y146.135 E17.51578
G1 X73.721 Y145.607 E17.53883
G1 X73.336 Y145.032 E17.56184
G1 X73.021 Y144.415 E17.58489
G1 X72.778 Y143.767 E17.6079
G1 X72.611 Y143.094 E17.63097
G1 X72.523 Y142.408 E17.65397
G1 X72.509 Y141.991 E17.66785
G1 X72.509 Y93.009 E19.297
G1 X72.549 Y92.318 E19.32002
G1 X72.668 Y91.635 E19.34308
G1 X72.866 Y90.972 E19.36609
G1 X73.138 Y90.335 E19.38913
G1 X73.482 Y89.734 E19.41216
G1 X73.893 Y89.176 E19.43521
G1 X74.365 Y88.67 E19.45822
G1 X74.893 Y88.221 E19.48128
M204 S5000
M205 X30 Y30
G0 F3600 X74.758 Y88.851
M204 S500
M205 X20 Y20
G1 F1800 X75.28 Y88.433 E19.50352
G1 X75.849 Y88.081 E19.52577
G1 X76.456 Y87.799 E19.54803
G1 X77.092 Y87.591 E19.57029
G1 X77.748 Y87.461 E19.59253
G1 X78.509 Y87.409 E19.6179
G1 X156.491 Y87.41 E22.21159
G1 X157.159 Y87.45 E22.23385
G1 X157.817 Y87.569 E22.25609
G1 X158.457 Y87.766 E22.27836
G1 X159.068 Y88.038 E22.30061
G1 X159.642 Y88.381 E22.32285
G1 X160.172 Y88.79 E22.34512
G1 X160.649 Y89.259 E22.36737
G1 X161.067 Y89.782 E22.38963
G1 X161.419 Y90.35 E22.41186
G1 X161.701 Y90.957 E22.43412
G1 X161.909 Y91.593 E22.45638
G1 X162.039 Y92.249 E22.47862
G1 X162.091 Y93.01 E22.50399
G1 X162.091 Y141.991 E24.1331
G1 X162.051 Y142.659 E24.15536
G1 X161.932 Y143.317 E24.1776
G1 X161.735 Y143.957 E24.19987
G1 X161.463 Y144.568 E24.22212
G1 X161.12 Y145.142 E24.24436
G1 X160.711 Y145.672 E24.26662
G1 X160.242 Y146.149 E24.28887
G1 X159.72 Y146.567 E24.31112
G1 X159.151 Y146.919 E24.33337
G1 X158.544 Y147.201 E24.35563
G1 X157.908 Y147.409 E24.37789
G1 X157.252 Y147.539 E24.40013
G1 X156.491 Y147.591 E24.4255
G1 X78.509 Y147.591 E27.01919
G1 X77.841 Y147.551 E27.04145
G1 X77.183 Y147.432 E27.06369
G1 X76.543 Y147.235 E27.08596
G1 X75.932 Y146.963 E27.10821
G1 X75.358 Y146.62 E27.13045
G1 X74.828 Y146.211 E27.15271
G1 X74.351 Y145.742 E27.17496
G1 X73.933 Y145.22 E27.1972
G1 X73.581 Y144.651 E27.21946
G1 X73.299 Y144.044 E27.24172
G1 X73.091 Y143.408 E27.26398
G1 X72.961 Y142.752 E27.28622
G1 X72.909 Y141.991 E27.31159
G1 X72.909 Y93.009 E28.94074
G1 X72.949 Y92.341 E28.96299
G1 X73.068 Y91.683 E28.98523
G1 X73.265 Y91.043 E29.00751
G1 X73.537 Y90.432 E29.02975
G1 X73.88 Y89.858 E29.05199
G1 X74.289 Y89.328 E29.07426
G1 X74.758 Y88.851 E29.09651
M204 S5000
M205 X30 Y30
G0 F3600 X75.149 Y89.04
M204 S500
M205 X20 Y20
G1 F1800 X75.666 Y88.655 E29.11795
G1 X76.227 Y88.336 E29.13941
G1 X76.823 Y88.09 E29.16086
G1 X77.444 Y87.919 E29.18228
G1 X78.082 Y87.827 E29.20372
G1 X78.509 Y87.809 E29.21793
G1 X156.491 Y87.81 E31.81163
G1 X157.134 Y87.85 E31.83305
G1 X157.768 Y87.969 E31.85451
G1 X158.382 Y88.166 E31.87596
G1 X158.967 Y88.437 E31.8974
G1 X159.514 Y88.779 E31.91886
G1 X160.014 Y89.185 E31.94028
G1 X160.46 Y89.651 E31.96173
G1 X160.845 Y90.167 E31.98314
G1 X161.164 Y90.728 E32.00461
G1 X161.41 Y91.324 E32.02605
G1 X161.581 Y91.945 E32.04748
G1 X161.673 Y92.583 E32.06892
G1 X161.691 Y93.01 E32.08313
G1 X161.691 Y141.991 E33.71225
G1 X161.651 Y142.634 E33.73367
G1 X161.532 Y143.268 E33.75513
G1 X161.335 Y143.882 E33.77658
G1 X161.064 Y144.467 E33.79802
G1 X160.722 Y145.014 E33.81948
G1 X160.316 Y145.514 E33.8409
G1 X159.851 Y145.96 E33.86233
G1 X159.334 Y146.345 E33.88377
G1 X158.773 Y146.664 E33.90523
G1 X158.177 Y146.91 E33.92668
G1 X157.556 Y147.081 E33.9481
G1 X156.918 Y147.173 E33.96954
G1 X156.491 Y147.191 E33.98376
G1 X78.509 Y147.191 E36.57745
G1 X77.866 Y147.151 E36.59887
G1 X77.232 Y147.032 E36.62033
G1 X76.618 Y146.835 E36.64178
G1 X76.033 Y146.564 E36.66322
G1 X75.486 Y146.222 E36.68468
G1 X74.986 Y145.816 E36.7061
G1 X74.54 Y145.351 E36.72753
G1 X74.155 Y144.834 E36.74897
G1 X73.836 Y144.273 E36.77043
G1 X73.59 Y143.677 E36.79188
G1 X73.419 Y143.056 E36.8133
G1 X73.327 Y142.418 E36.83474
G1 X73.309 Y141.991 E36.84896
G1 X73.309 Y93.009 E38.4781
G1 X73.349 Y92.366 E38.49953
G1 X73.468 Y91.732 E38.52099
G1 X73.665 Y91.118 E38.54243
G1 X73.936 Y90.533 E38.56388
G1 X74.278 Y89.986 E38.58533
G1 X74.684 Y89.486 E38.60676
G1 X75.149 Y89.04 E38.62819
M204 S5000
M205 X30 Y30
G1 F2400 E28.62819
G1 F300 Z1.2
;MESH:bubblegramcasev2.stl
G0 F3600 X155.9 Y141.4 Z1.2
M204 S500
M205 X20 Y20
;TYPE:WALL-INNER
G1 F300 Z0.2
G1 F2400 E38.62819
G1 F1800 X79.1 Y141.4 E41.18256
G1 X79.1 Y93.6 E42.7724
G1 X155.9 Y93.6 E45.32678
G1 X155.9 Y141.4 E46.91661
M204 S5000
M205 X30 Y30
G0 F3600 X156.3 Y141.8
M204 S500
M205 X20 Y20
;TYPE:WALL-OUTER
G1 F1800 X78.7 Y141.8 E49.4976
G1 X78.7 Y93.2 E51.11404
G1 X156.3 Y93.2 E53.69503
G1 X156.3 Y141.8 E55.31147
M204 S5000
M205 X30 Y30
G0 F3600 X156.1 Y141.8
G0 X155.51 Y141.01
M204 S500
M205 X20 Y20
;TYPE:SKIN
G1 F1800 X79.49 Y141.01 E57.83991
G1 X79.49 Y93.99 E59.4038
G1 X155.51 Y93.99 E61.93223
G1 X155.51 Y141.01 E63.49612
M204 S5000
M205 X30 Y30
G0 F3600 X155.329 Y94.235
M204 S500
M205 X20 Y20
G1 F1800 X155.264 Y94.17 E63.49918
M204 S5000
M205 X30 Y30
G0 F3600 X154.698 Y94.17
M204 S500
M205 X20 Y20
G1 F1800 X155.329 Y94.801 E63.52886
M204 S5000
M205 X30 Y30
G0 F3600 X155.329 Y95.366
M204 S500
M205 X20 Y20
G1 F1800 X154.133 Y94.17 E63.58512
M204 S5000
M205 X30 Y30
G0 F3600 X153.567 Y94.17
M204 S500
M205 X20 Y20
G1 F1800 X155.329 Y95.932 E63.668
M204 S5000
M205 X30 Y30
G0 F3600 X155.329 Y96.498
M204 S500
M205 X20 Y20
G1 F1800 X153.001 Y94.17 E63.7775
M204 S5000
M205 X30 Y30
G0 F3600 X152.435 Y94.17
M204 S500
M205 X20 Y20
G1 F1800 X155.329 Y97.063 E63.9136
M204 S5000
M205 X30 Y30
G0 F3600 X155.329 Y97.629
M204 S500
M205 X20 Y20
G1 F1800 X151.87 Y94.17 E64.0763
M204 S5000
M205 X30 Y30
G0 F3600 X151.304 Y94.17
M204 S500
M205 X20 Y20
G1 F1800 X155.329 Y98.195 E64.26562
M204 S5000
M205 X30 Y30
G0 F3600 X155.329 Y98.76
M204 S500
M205 X20 Y20
G1 F1800 X150.738 Y94.17 E64.48155
M204 S5000
M205 X30 Y30
G0 F3600 X150.173 Y94.17
M204 S500
M205 X20 Y20
G1 F1800 X155.329 Y99.326 E64.72407
M204 S5000
M205 X30 Y30
G0 F3600 X155.329 Y99.892
M204 S500
M205 X20 Y20
G1 F1800 X149.607 Y94.17 E64.99322
M204 S5000
M205 X30 Y30
G0 F3600 X149.041 Y94.17
M204 S500
M205 X20 Y20
G1 F1800 X155.329 Y100.457 E65.28896
M204 S5000
M205 X30 Y30
G0 F3600 X155.329 Y101.023
M204 S500
M205 X20 Y20
G1 F1800 X148.476 Y94.17 E65.6113
M204 S5000
M205 X30 Y30
G0 F3600 X147.91 Y94.17
M204 S500
M205 X20 Y20
G1 F1800 X155.329 Y101.589 E65.96027
M204 S5000
M205 X30 Y30
G0 F3600 X155.329 Y102.155
M204 S500
M205 X20 Y20
G1 F1800 X147.344 Y94.17 E66.33586
M204 S5000
M205 X30 Y30
G0 F3600 X146.779 Y94.17
M204 S500
M205 X20 Y20
G1 F1800 X155.329 Y102.72 E66.73803
M204 S5000
M205 X30 Y30
G0 F3600 X155.329 Y103.286
M204 S500
M205 X20 Y20
G1 F1800 X146.213 Y94.17 E67.16682
M204 S5000
M205 X30 Y30
G0 F3600 X145.647 Y94.17
M204 S500
M205 X20 Y20
G1 F1800 X155.329 Y103.852 E67.62223
M204 S5000
M205 X30 Y30
G0 F3600 X155.329 Y104.417
M204 S500
M205 X20 Y20
G1 F1800 X145.082 Y94.17 E68.10421
M204 S5000
M205 X30 Y30
G0 F3600 X144.516 Y94.17
M204 S500
M205 X20 Y20
G1 F1800 X155.329 Y104.983 E68.61283
M204 S5000
M205 X30 Y30
G0 F3600 X155.329 Y105.549
M204 S500
M205 X20 Y20
G1 F1800 X143.95 Y94.17 E69.14806
M204 S5000
M205 X30 Y30
G0 F3600 X143.384 Y94.17
M204 S500
M205 X20 Y20
G1 F1800 X155.329 Y106.114 E69.70989
M204 S5000
M205 X30 Y30
G0 F3600 X155.329 Y106.68
M204 S500
M205 X20 Y20
G1 F1800 X142.819 Y94.17 E70.29832
M204 S5000
M205 X30 Y30
G0 F3600 X142.253 Y94.17
M204 S500
M205 X20 Y20
G1 F1800 X155.329 Y107.246 E70.91338
M204 S5000
M205 X30 Y30
G0 F3600 X155.329 Y107.811
M204 S500
M205 X20 Y20
G1 F1800 X141.687 Y94.17 E71.55503
M204 S5000
M205 X30 Y30
G0 F3600 X141.122 Y94.17
M204 S500
M205 X20 Y20
G1 F1800 X155.329 Y108.377 E72.22329
M204 S5000
M205 X30 Y30
G0 F3600 X155.329 Y108.943
M204 S500
M205 X20 Y20
G1 F1800 X140.556 Y94.17 E72.91816
M204 S5000
M205 X30 Y30
G0 F3600 X139.99 Y94.17
M204 S500
M205 X20 Y20
G1 F1800 X155.329 Y109.508 E73.63964
M204 S5000
M205 X30 Y30
G0 F3600 X155.329 Y110.074
M204 S500
M205 X20 Y20
G1 F1800 X139.425 Y94.17 E74.38771
M204 S5000
M205 X30 Y30
G0 F3600 X138.859 Y94.17
M204 S500
M205 X20 Y20
G1 F1800 X155.329 Y110.64 E75.16241
M204 S5000
M205 X30 Y30
G0 F3600 X155.329 Y111.205
M204 S500
M205 X20 Y20
G1 F1800 X138.293 Y94.17 E75.96371
M204 S5000
M205 X30 Y30
G0 F3600 X137.728 Y94.17
M204 S500
M205 X20 Y20
G1 F1800 X155.329 Y111.771 E76.79161
M204 S5000
M205 X30 Y30
G0 F3600 X155.329 Y112.337
M204 S500
M205 X20 Y20
G1 F1800 X137.162 Y94.17 E77.64613
M204 S5000
M205 X30 Y30
G0 F3600 X136.596 Y94.17
M204 S500
M205 X20 Y20
G1 F1800 X155.329 Y112.903 E78.52727
M204 S5000
M205 X30 Y30
G0 F3600 X155.329 Y113.468
M204 S500
M205 X20 Y20
G1 F1800 X136.031 Y94.17 E79.43499
M204 S5000
M205 X30 Y30
G0 F3600 X135.465 Y94.17
M204 S500
M205 X20 Y20
G1 F1800 X155.329 Y114.034 E80.36933
M204 S5000
M205 X30 Y30
G0 F3600 X155.329 Y114.6
M204 S500
M205 X20 Y20
G1 F1800 X134.899 Y94.17 E81.3303
M204 S5000
M205 X30 Y30
G0 F3600 X134.334 Y94.17
M204 S500
M205 X20 Y20
G1 F1800 X155.329 Y115.165 E82.31784
M204 S5000
M205 X30 Y30
G0 F3600 X155.329 Y115.731
M204 S500
M205 X20 Y20
G1 F1800 X133.768 Y94.17 E83.332
M204 S5000
M205 X30 Y30
G0 F3600 X133.202 Y94.17
M204 S500
M205 X20 Y20
G1 F1800 X155.329 Y116.297 E84.37279
M204 S5000
M205 X30 Y30
G0 F3600 X155.329 Y116.862
M204 S500
M205 X20 Y20
G1 F1800 X132.636 Y94.17 E85.44017
M204 S5000
M205 X30 Y30
G0 F3600 X132.071 Y94.17
M204 S500
M205 X20 Y20
G1 F1800 X155.329 Y117.428 E86.53416
M204 S5000
M205 X30 Y30
G0 F3600 X155.329 Y117.994
M204 S500
M205 X20 Y20
G1 F1800 X131.505 Y94.17 E87.65476
M204 S5000
M205 X30 Y30
G0 F3600 X130.939 Y94.17
M204 S500
M205 X20 Y20
G1 F1800 X155.329 Y118.559 E88.80197
M204 S5000
M205 X30 Y30
G0 F3600 X155.329 Y119.125
M204 S500
M205 X20 Y20
G1 F1800 X130.374 Y94.17 E89.97578
M204 S5000
M205 X30 Y30
G0 F3600 X129.808 Y94.17
M204 S500
M205 X20 Y20
G1 F1800 X155.329 Y119.691 E91.17621
M204 S5000
M205 X30 Y30
G0 F3600 X155.329 Y120.256
M204 S500
M205 X20 Y20
G1 F1800 X129.242 Y94.17 E92.40324
M204 S5000
M205 X30 Y30
G0 F3600 X128.677 Y94.17
M204 S500
M205 X20 Y20
G1 F1800 X155.329 Y120.822 E93.65686
M204 S5000
M205 X30 Y30
G0 F3600 X155.329 Y121.388
M204 S500
M205 X20 Y20
G1 F1800 X128.111 Y94.17 E94.93712
M204 S5000
M205 X30 Y30
G0 F3600 X127.545 Y94.17
M204 S500
M205 X20 Y20
G1 F1800 X155.329 Y121.953 E96.24397
M204 S5000
M205 X30 Y30
G0 F3600 X155.329 Y122.519
M204 S500
M205 X20 Y20
G1 F1800 X126.98 Y94.17 E97.57742
M204 S5000
M205 X30 Y30
G0 F3600 X126.414 Y94.17
M204 S500
M205 X20 Y20
G1 F1800 X155.329 Y123.085 E98.93749
M204 S5000
M205 X30 Y30
G0 F3600 X155.329 Y123.651
M204 S500
M205 X20 Y20
G1 F1800 X125.848 Y94.17 E100.32419
M204 S5000
M205 X30 Y30
G0 F3600 X125.283 Y94.17
M204 S500
M205 X20 Y20
G1 F1800 X155.329 Y124.216 E101.73746
M204 S5000
M205 X30 Y30
G0 F3600 X155.329 Y124.782
M204 S500
M205 X20 Y20
G1 F1800 X124.717 Y94.17 E103.17735
M204 S5000
M205 X30 Y30
G0 F3600 X124.151 Y94.17
M204 S500
M205 X20 Y20
G1 F1800 X155.329 Y125.348 E104.64387
M204 S5000
M205 X30 Y30
G0 F3600 X155.329 Y125.913
M204 S500
M205 X20 Y20
G1 F1800 X123.586 Y94.17 E106.13696
M204 S5000
M205 X30 Y30
G0 F3600 X123.02 Y94.17
M204 S500
M205 X20 Y20
G1 F1800 X155.329 Y126.479 E107.65668
M204 S5000
M205 X30 Y30
G0 F3600 X155.329 Y127.045
M204 S500
M205 X20 Y20
G1 F1800 X122.454 Y94.17 E109.20302
M204 S5000
M205 X30 Y30
G0 F3600 X121.888 Y94.17
M204 S500
M205 X20 Y20
G1 F1800 X155.329 Y127.61 E110.77596
M204 S5000
M205 X30 Y30
G0 F3600 X155.329 Y128.176
M204 S500
M205 X20 Y20
G1 F1800 X121.323 Y94.17 E112.37549
M204 S5000
M205 X30 Y30
G0 F3600 X120.757 Y94.17
M204 S500
M205 X20 Y20
G1 F1800 X155.329 Y128.742 E114.00166
M204 S5000
M205 X30 Y30
G0 F3600 X155.329 Y129.307
M204 S500
M205 X20 Y20
G1 F1800 X120.191 Y94.17 E115.65442
M204 S5000
M205 X30 Y30
G0 F3600 X119.626 Y94.17
M204 S500
M205 X20 Y20
G1 F1800 X155.329 Y129.873 E117.33378
M204 S5000
M205 X30 Y30
G0 F3600 X155.329 Y130.439
M204 S500
M205 X20 Y20
G1 F1800 X119.06 Y94.17 E119.03976
M204 S5000
M205 X30 Y30
G0 F3600 X118.494 Y94.17
M204 S500
M205 X20 Y20
G1 F1800 X155.329 Y131.004 E120.77234
M204 S5000
M205 X30 Y30
G0 F3600 X155.329 Y131.57
M204 S500
M205 X20 Y20
G1 F1800 X117.929 Y94.17 E122.53152
M204 S5000
M205 X30 Y30
G0 F3600 X117.363 Y94.17
M204 S500
M205 X20 Y20
G1 F1800 X155.329 Y132.136 E124.31733
M204 S5000
